assets/images/clock-red.svg

<svg width="26" height="27" viewBox="0 0 26 27" fill="none" xmlns="http://www.w3.org/2000/svg">
<path d="M13 0C10.4288 0 7.91543 0.781909 5.77759 2.24685C3.63975 3.71179 1.97351 5.79397 0.989572 8.23008C0.00563272 10.6662 -0.251811 13.3468 0.249797 15.933C0.751405 18.5191 1.98953 20.8947 3.80762 22.7592C5.6257 24.6237 7.94208 25.8935 10.4638 26.4079C12.9856 26.9223 15.5994 26.6583 17.9749 25.6492C20.3503 24.6401 22.3806 22.9313 23.8091 20.7389C25.2376 18.5465 26 15.9688 26 13.332C25.9962 9.79735 24.6253 6.40858 22.1882 3.90919C19.751 1.4098 16.4466 0.00392088 13 0ZM13 24.8864C10.7717 24.8864 8.59337 24.2088 6.74058 22.9392C4.88779 21.6696 3.44371 19.865 2.59096 17.7537C1.73822 15.6424 1.5151 13.3192 1.94982 11.0779C2.38455 8.83653 3.4576 6.77773 5.03327 5.16181C6.60894 3.5459 8.61647 2.44545 10.802 1.99962C12.9875 1.55379 15.2529 1.7826 17.3116 2.65713C19.3703 3.53166 21.1299 5.01262 22.3679 6.91273C23.6059 8.81284 24.2667 11.0468 24.2667 13.332C24.2667 16.3964 23.0796 19.3354 20.9667 21.5022C18.8538 23.6691 15.9881 24.8864 13 24.8864Z" fill="#C93131"/>
<path d="M12.9997 6.51795C12.9997 6.28223 12.9084 6.05616 12.7458 5.88947C12.5833 5.72279 12.3629 5.62915 12.133 5.62915C11.9032 5.62915 11.6827 5.72279 11.5202 5.88947C11.3577 6.05616 11.2664 6.28223 11.2664 6.51795V14.5172C11.2664 14.7529 11.3577 14.979 11.5202 15.1456C11.6827 15.3123 11.9032 15.406 12.133 15.406H20.2219C20.4518 15.406 20.6722 15.3123 20.8347 15.1456C20.9973 14.979 21.0886 14.7529 21.0886 14.5172C21.0886 14.2814 20.9973 14.0554 20.8347 13.8887C20.6722 13.722 20.4518 13.6284 20.2219 13.6284H12.9997V6.51795Z" fill="#C93131"/>
</svg>

<svg width="26" height="27" fill="none" xmlns="http://www.w3.org/2000/svg"><path d="M13 0a12.77 12.77 0 00-7.222 2.247A13.265 13.265 0 00.99 8.23a13.649 13.649 0 00-.74 7.703 13.44 13.44 0 003.558 6.826 12.903 12.903 0 006.656 3.649 12.7 12.7 0 007.51-.759 13.077 13.077 0 005.835-4.91A13.575 13.575 0 0026 13.332c-.004-3.535-1.375-6.923-3.812-9.423S16.447.004 13 0zm0 24.886c-2.228 0-4.407-.677-6.26-1.947a11.497 11.497 0 01-4.149-5.185 11.829 11.829 0 01-.641-6.676 11.649 11.649 0 013.083-5.916A11.183 11.183 0 0110.802 2a11.006 11.006 0 016.51.657 11.333 11.333 0 015.056 4.256 11.765 11.765 0 011.899 6.419c0 3.064-1.187 6.003-3.3 8.17A11.126 11.126 0 0113 24.886z" fill="#C93131"/><path d="M13 6.518a.9.9 0 00-.254-.629.856.856 0 00-.613-.26.86.86 0 00-.613.26.9.9 0 00-.254.629v8a.9.9 0 00.254.628.86.86 0 00.613.26h8.089a.86.86 0 00.613-.26.9.9 0 00.254-.629.9.9 0 00-.254-.628.856.856 0 00-.613-.26H13V6.517z" fill="#C93131"/></svg>
